svgs/solid/rv.svg

<svg xmlns="http://www.w3.org/2000/svg" viewBox="0 0 640 512"><!--! Font Awesome Pro 6.2.0 by @fontawesome - https://fontawesome.com License - https://fontawesome.com/license (Commercial License) Copyright 2022 Fonticons, Inc. --><path d="M224 16c0-8.8 7.2-16 16-16H368c8.8 0 16 7.2 16 16V32H512c53 0 96 43 96 96c0 17.7-14.3 32-32 32H384V416H254.4c1 5.2 1.6 10.5 1.6 16c0 44.2-35.8 80-80 80s-80-35.8-80-80c0-5.5 .6-10.8 1.6-16H96L18.7 338.7C6.7 326.7 0 310.5 0 293.5V96C0 60.7 28.7 32 64 32H224V16zM112 128c-8.8 0-16 7.2-16 16v64c0 8.8 7.2 16 16 16H240c8.8 0 16-7.2 16-16V144c0-8.8-7.2-16-16-16H112zm96 304c0-17.7-14.3-32-32-32s-32 14.3-32 32s14.3 32 32 32s32-14.3 32-32zm288 32c17.7 0 32-14.3 32-32c0-6.6-2-12.8-5.5-17.9C516.8 405.6 507 400 496 400c-11.8 0-22.2 6.4-27.7 16c-2.7 4.7-4.3 10.2-4.3 16c0 17.7 14.3 32 32 32zm-80-48V400 320 288 216 192h24 76.6c12.9 0 25.5 4.5 35.5 12.7l67.4 55.2c13 10.6 20.5 26.5 20.5 43.3V320v64c0 17.7-14.3 32-32 32H574.4c1 5.2 1.6 10.5 1.6 16c0 44.2-35.8 80-80 80s-80-35.8-80-80V416zM578.1 288l-56.5-46.2c-1.4-1.2-3.2-1.8-5.1-1.8H464v48H578.1z"/></svg>

<svg xmlns="http://www.w3.org/2000/svg" viewBox="0 0 640 512"><!--! Font Awesome Pro 6.1.2 by @fontawesome - https://fontawesome.com License - https://fontawesome.com/license (Commercial License) Copyright 2022 Fonticons, Inc. --><path d="M224 16C224 7.164 231.2 0 240 0H368C376.8 0 384 7.164 384 16V32H512C565 32 608 74.98 608 128C608 145.7 593.7 160 576 160H384V416H254.4C255.4 421.2 256 426.5 256 432C256 476.2 220.2 512 176 512C131.8 512 96 476.2 96 432C96 426.5 96.55 421.2 97.6 416H96L18.75 338.7C6.743 326.7 0 310.5 0 293.5V96C0 60.65 28.65 32 64 32H224V16zM112 128C103.2 128 96 135.2 96 144V208C96 216.8 103.2 224 112 224H240C248.8 224 256 216.8 256 208V144C256 135.2 248.8 128 240 128H112zM176 400C158.3 400 144 414.3 144 432C144 449.7 158.3 464 176 464C193.7 464 208 449.7 208 432C208 414.3 193.7 400 176 400zM416 192H516.6C529.5 192 542 196.5 552 204.7L619.5 259.8C632.5 270.5 640 286.4 640 303.2V384C640 401.7 625.7 416 608 416H574.4C575.4 421.2 576 426.5 576 432C576 476.2 540.2 512 496 512C451.8 512 416 476.2 416 432V192zM496 464C513.7 464 528 449.7 528 432C528 425.4 525.1 419.2 522.5 414.1C516.8 405.6 507 400 496 400C484.2 400 473.8 406.4 468.3 416C465.6 420.7 464 426.2 464 432C464 449.7 478.3 464 496 464zM521.6 241.8C520.2 240.6 518.4 240 516.6 240H464V288H578.1L521.6 241.8z"/></svg>
